src/images/deliveroo-color.svg

<?xml version="1.0" encoding="UTF-8"?>
<svg width="71px" height="74px" viewBox="0 0 71 74" version="1.1" xmlns="http://www.w3.org/2000/svg" xmlns:xlink="http://www.w3.org/1999/xlink">
    <!-- Generator: Sketch 55.2 (78181) - https://sketchapp.com -->
    <title>deliveroo-seeklogo.com</title>
    <desc>Created with Sketch.</desc>
    <defs>
        <polygon id="path-1" points="0.00454157783 0.069015544 70.9545842 0.069015544 70.9545842 14.0285596 0.00454157783 14.0285596"></polygon>
    </defs>
    <g id="Page-1" stroke="none" stroke-width="1" fill="none" fill-rule="evenodd">
        <g id="07.-Customers" transform="translate(-109.000000, -1736.000000)">
            <g id="deliveroo-seeklogo.com" transform="translate(109.000000, 1736.000000)">
                <path d="M43.2736674,36.5015544 L43.2736674,36.5015544 C42.8119403,37.4064249 41.6159915,37.5214508 40.4427505,36.8696373 C39.6479744,36.4248705 39.6555437,35.2976166 39.7463753,34.6074611 C39.791791,34.2317098 39.9280384,33.8789637 40.1324094,33.5798964 C40.4124733,33.1734715 40.889339,32.6366839 41.4343284,32.6213472 C42.319936,32.5906736 43.084435,33.0507772 43.5158849,33.8712953 C43.9473348,34.6918135 43.7353945,35.5966839 43.2736674,36.5015544 Z M34.4705757,35.3743005 L34.4705757,35.3743005 C33.8423241,36.0337824 33.0097015,35.9724352 32.1316631,35.6350259 C31.2536247,35.305285 30.8600213,34.0860104 31.1930704,32.6213472 C31.4428571,31.5324352 32.6085288,31.371399 33.1913646,31.3560622 C33.4108742,31.3483938 33.6303838,31.4020725 33.8347548,31.5094301 C34.2510661,31.7241451 34.9474414,32.1765803 35.091258,32.8744041 C35.295629,33.8712953 35.0988273,34.7148187 34.4705757,35.3743005 Z M44.0760128,0.0230051813 L44.0760128,0.0230051813 L41.8355011,24.3931606 L38.0130064,3.84953368 L26.0156716,6.76352332 L29.8381663,27.3071503 L12.5423241,31.5017617 L15.6003198,47.9121244 L46.0061834,55.2891192 L52.9623667,37.4601036 L56.2701493,1.49533679 L44.0760128,0.0230051813 L44.0760128,0.0230051813 Z" id="Fill-1" fill="#000000"></path>
                <path d="M50.8883795,64.0464249 C49.8059701,64.0464249 48.8976546,64.5448705 48.3223881,65.4650777 L48.065032,64.2611399 L45.5898721,64.2611399 L45.9910448,66.1245596 L45.9910448,73.7929534 L48.398081,73.7929534 L48.398081,67.7195855 C48.7235608,67.0907772 49.3366738,66.7073575 50.1314499,66.7073575 C50.6234542,66.7073575 51.0700426,66.8377202 51.4863539,67.1291192 L52.6293177,64.5218653 C52.099467,64.1921244 51.4863539,64.0464249 50.8883795,64.0464249" id="Fill-3" fill="#000000"></path>
                <g id="Group-11" transform="translate(0.000000, 59.966839)">
                    <mask id="mask-2" fill="white">
                        <use xlink:href="#path-1"></use>
                    </mask>
                    <g id="Clip-5"></g>
                    <path d="M9.67814499,14.0218135 L9.67814499,14.0218135" id="Fill-4" fill="#35B8B2" mask="url(#mask-2)"></path>
                    <path d="M56.3609808,11.4642487 L56.3609808,11.4642487 C54.9682303,11.4642487 53.938806,10.5210363 53.938806,9.06404145 C53.938806,7.58404145 54.9682303,6.6638342 56.3609808,6.6638342 C57.7688699,6.6638342 58.7831977,7.58404145 58.7831977,9.06404145 C58.7907249,10.5287047 57.7764392,11.4642487 56.3609808,11.4642487 Z M56.3609808,4.09492228 C53.6284648,4.09492228 51.5998934,6.11170984 51.5998934,9.06404145 C51.5998934,12.0163731 53.6284648,14.0331606 56.3534115,14.0331606 C59.0859275,14.0331606 61.1070138,12.0240415 61.1070138,9.06404145 C61.1220682,6.11170984 59.0934968,4.09492228 56.3609808,4.09492228 L56.3609808,4.09492228 Z" id="Fill-6" fill="#000000" mask="url(#mask-2)"></path>
                    <path d="M66.2010661,11.4642487 C64.8083156,11.4642487 63.7788913,10.5210363 63.7788913,9.06404145 C63.7788913,7.58404145 64.8083156,6.6638342 66.2010661,6.6638342 C67.6089552,6.6638342 68.6232409,7.58404145 68.6232409,9.06404145 C68.6232409,10.5287047 67.6165245,11.4642487 66.2010661,11.4642487 Z M66.2010661,4.09492228 C63.4685501,4.09492228 61.4399787,6.11170984 61.4399787,9.06404145 C61.4399787,12.0163731 63.4685501,14.0331606 66.1934968,14.0331606 C68.9260128,14.0331606 70.9546053,12.0240415 70.9546053,9.06404145 C70.9621535,6.11170984 68.9335821,4.09492228 66.2010661,4.09492228 L66.2010661,4.09492228 Z" id="Fill-7" fill="#000000" mask="url(#mask-2)"></path>
                    <path d="M4.75351812,11.4642487 C3.36076759,11.4642487 2.33134328,10.5210363 2.33134328,9.06404145 C2.33134328,7.58404145 3.36076759,6.6638342 4.75351812,6.6638342 C6.16140725,6.6638342 7.17573505,7.58404145 7.17573505,9.06404145 C7.18326226,10.5287047 6.16897655,11.4642487 4.75351812,11.4642487 Z M9.56759062,0.069015544 L7.16055437,0.069015544 L7.16055437,5.44455959 C6.43390192,4.59336788 5.44232409,4.09492228 4.26908316,4.09492228 C1.86204691,4.09492228 0,6.10404145 0,9.06404145 C0,12.0163731 1.86204691,14.0331606 4.26908316,14.0331606 C5.46503198,14.0331606 6.49445629,13.5193782 7.22110874,12.6298446 L7.47089552,13.8337824 L9.98390192,13.8337824 L9.56759062,11.8553368 L9.56759062,0.069015544 L9.56759062,0.069015544 Z" id="Fill-8" fill="#000000" mask="url(#mask-2)"></path>
                    <polyline id="Fill-9" fill="#000000" mask="url(#mask-2)" points="31.5185501 12.0240415 29.6716418 4.30196891 27.0905117 4.30196891 29.6035181 13.8337824 33.4714286 13.8337824 35.984435 4.30196891 33.3654584 4.30196891 31.5185501 12.0240415"></polyline>
                    <path d="M38.2098081,8.19751295 C38.4823028,7.10860104 39.2922175,6.51813472 40.5260128,6.51813472 C41.7749467,6.51813472 42.5924307,7.10860104 42.8422175,8.19751295 L38.2098081,8.19751295 Z M40.5260128,4.09492228 C37.8162047,4.09492228 35.8254797,6.08870466 35.8254797,9.06404145 C35.8254797,12.093057 37.8010661,14.0331606 40.8514925,14.0331606 C42.191258,14.0331606 43.5083156,13.6650777 44.6134328,12.9442487 L43.6899787,10.8354404 C42.8195096,11.295544 41.8657783,11.5716062 40.889339,11.5716062 C39.6252665,11.5716062 38.7396588,11.0731606 38.3536247,10.1529534 L45.1205757,10.1529534 C45.1962687,9.80020725 45.2265458,9.45512953 45.2265458,9.02569948 C45.2265458,6.07336788 43.2206823,4.09492228 40.5260128,4.09492228 L40.5260128,4.09492228 Z" id="Fill-10" fill="#000000" mask="url(#mask-2)"></path>
                </g>
                <path d="M12.69371,68.1643523 C12.9662047,67.0754404 13.7761194,66.4849741 15.0099147,66.4849741 C16.2588486,66.4849741 17.0687633,67.0754404 17.3261194,68.1643523 L12.69371,68.1643523 Z M15.0553305,64.0387565 C12.3455224,64.0387565 10.3547974,66.0325389 10.3547974,69.0078756 C10.3547974,72.0368912 12.3228145,73.9769948 15.3808102,73.9769948 C16.7205757,73.9769948 18.0376333,73.6089119 19.1427505,72.8880829 L18.2192964,70.7792746 C17.3488273,71.2393782 16.3950959,71.5154404 15.4186567,71.5154404 C14.1545842,71.5154404 13.2689765,71.0169948 12.8829424,70.0967876 L19.6498934,70.0967876 C19.7255864,69.7440415 19.7558635,69.3989637 19.7558635,68.9695337 C19.7558635,66.0172021 17.75,64.0387565 15.0553305,64.0387565 L15.0553305,64.0387565 Z" id="Fill-12" fill="#000000"></path>
                <path d="M25.4252665,59.8518135 C24.5547974,59.8518135 23.903838,60.5189637 23.903838,61.400829 C23.903838,62.2826943 24.5547974,62.9498446 25.4252665,62.9498446 C26.2730277,62.9498446 26.9239872,62.2826943 26.9239872,61.400829 C26.9239872,60.5189637 26.2730277,59.8518135 25.4252665,59.8518135" id="Fill-13" fill="#000000"></path>
                <polygon id="Fill-14" fill="#000000" points="24.2141791 73.8006218 26.6212154 73.8006218 26.6212154 64.2688083 24.2141791 64.2688083"></polygon>
                <polygon id="Fill-15" fill="#000000" points="20.4673774 73.8006218 22.8744136 73.8006218 22.8744136 60.0358549 20.4673774 60.0358549"></polygon>
            </g>
        </g>
    </g>
</svg>

<svg width="71" height="60" viewBox="0 0 71 74" xmlns="http://www.w3.org/2000/svg" xmlns:xlink="http://www.w3.org/1999/xlink"><defs><path id="a" d="M.005.069h70.95v13.96H.005z"/><path id="b" d="M.005.069h70.95v13.96H.005z"/><path id="d" d="M.005.069h70.95v13.96H.005z"/><path id="f" d="M.005.069h70.95v13.96H.005z"/><path id="h" d="M.005.069h70.95v13.96H.005z"/><path id="j" d="M.005.069h70.95v13.96H.005z"/></defs><g fill="none" fill-rule="evenodd"><path d="M43.274 36.502c-.462.904-1.658 1.02-2.831.368-.795-.445-.787-1.572-.697-2.263.046-.375.182-.728.386-1.027.28-.407.757-.943 1.302-.959.886-.03 1.65.43 2.082 1.25.431.82.22 1.726-.242 2.63zm-8.803-1.128c-.629.66-1.461.598-2.34.261-.877-.33-1.271-1.549-.938-3.014.25-1.089 1.416-1.25 1.998-1.265.22-.008.44.046.644.153.416.215 1.112.668 1.256 1.365.205.997.008 1.84-.62 2.5zM44.076.023l-2.24 24.37L38.013 3.85 26.016 6.764l3.822 20.543-17.296 4.195 3.058 16.41 30.406 7.377 6.956-17.829L56.27 1.495 44.076.023zM50.888 64.046c-1.082 0-1.99.499-2.566 1.42l-.257-1.205H45.59l.401 1.864v7.668h2.407V67.72c.326-.63.939-1.013 1.733-1.013.492 0 .939.13 1.355.422l1.143-2.607a3.293 3.293 0 00-1.74-.476" fill="#291C45" fill-rule="nonzero"/><g transform="translate(0 59.967)"><mask id="c" fill="#fff"><use xlink:href="#b"/></mask><path d="M56.361 11.464c-1.393 0-2.422-.943-2.422-2.4 0-1.48 1.03-2.4 2.422-2.4 1.408 0 2.422.92 2.422 2.4.008 1.465-1.007 2.4-2.422 2.4zm0-7.37c-2.733 0-4.761 2.018-4.761 4.97s2.028 4.97 4.753 4.97c2.733 0 4.754-2.01 4.754-4.97.015-2.952-2.014-4.97-4.746-4.97z" fill="#291C45" fill-rule="nonzero" mask="url(#c)"/></g><g transform="translate(0 59.967)"><mask id="e" fill="#fff"><use xlink:href="#d"/></mask><path d="M66.201 11.464c-1.393 0-2.422-.943-2.422-2.4 0-1.48 1.03-2.4 2.422-2.4 1.408 0 2.422.92 2.422 2.4 0 1.465-1.006 2.4-2.422 2.4zm0-7.37c-2.732 0-4.761 2.018-4.761 4.97s2.029 4.97 4.753 4.97c2.733 0 4.762-2.01 4.762-4.97.007-2.952-2.021-4.97-4.754-4.97z" fill="#291C45" fill-rule="nonzero" mask="url(#e)"/></g><g transform="translate(0 59.967)"><mask id="g" fill="#fff"><use xlink:href="#f"/></mask><path d="M4.754 11.464c-1.393 0-2.423-.943-2.423-2.4 0-1.48 1.03-2.4 2.423-2.4 1.407 0 2.422.92 2.422 2.4.007 1.465-1.007 2.4-2.422 2.4zM9.568.07H7.16v5.376c-.727-.852-1.719-1.35-2.892-1.35C1.862 4.095 0 6.104 0 9.064c0 2.952 1.862 4.97 4.27 4.97A3.732 3.732 0 007.22 12.63l.25 1.204h2.513l-.416-1.979V.07z" fill="#291C45" fill-rule="nonzero" mask="url(#g)"/></g><g transform="translate(0 59.967)"><mask id="i" fill="#fff"><use xlink:href="#h"/></mask><path fill="#291C45" fill-rule="nonzero" mask="url(#i)" d="M31.519 12.024l-1.847-7.722H27.09l2.513 9.532h3.867l2.513-9.532h-2.619l-1.846 7.722"/></g><g transform="translate(0 59.967)"><mask id="k" fill="#fff"><use xlink:href="#j"/></mask><path d="M38.21 8.198c.272-1.09 1.082-1.68 2.316-1.68 1.249 0 2.066.59 2.316 1.68H38.21zm2.316-4.103c-2.71 0-4.7 1.994-4.7 4.969 0 3.03 1.975 4.97 5.025 4.97 1.34 0 2.657-.369 3.762-1.09l-.923-2.109c-.87.46-1.824.737-2.8.737-1.265 0-2.15-.499-2.536-1.419h6.767c.075-.353.106-.698.106-1.127 0-2.953-2.006-4.931-4.701-4.931z" fill="#291C45" fill-rule="nonzero" mask="url(#k)"/></g><path d="M12.694 68.164c.272-1.089 1.082-1.679 2.316-1.679 1.249 0 2.059.59 2.316 1.68h-4.632zm2.361-4.125c-2.71 0-4.7 1.994-4.7 4.969 0 3.029 1.968 4.969 5.026 4.969 1.34 0 2.657-.368 3.762-1.089l-.924-2.109c-.87.46-1.824.736-2.8.736-1.264 0-2.15-.498-2.536-1.418h6.767c.076-.353.106-.698.106-1.127 0-2.953-2.006-4.931-4.7-4.931zM25.425 59.852c-.87 0-1.521.667-1.521 1.549 0 .882.65 1.549 1.521 1.549.848 0 1.499-.667 1.499-1.55 0-.881-.651-1.548-1.499-1.548M24.214 73.8h2.407V64.27h-2.407zM20.467 73.8h2.407V60.037h-2.407z" fill="#291C45" fill-rule="nonzero"/></g></svg>
